polaris-icons/icons/new-icons/MaximizeMajor.svg

<svg width="20" height="20" viewBox="0 0 20 20" fill="none" xmlns="http://www.w3.org/2000/svg">
<path d="M12.75 3.5C12.3358 3.5 12 3.83579 12 4.25C12 4.66421 12.3358 5 12.75 5L13.9393 5L10.7197 8.21967C10.4268 8.51256 10.4268 8.98744 10.7197 9.28033C11.0126 9.57322 11.4874 9.57322 11.7803 9.28033L15 6.06066L15 7.25C15 7.66421 15.3358 8 15.75 8C16.1642 8 16.5 7.66421 16.5 7.25L16.5 4.25C16.5 3.83579 16.1642 3.5 15.75 3.5H12.75Z" fill="#4A4A4A"/>
<path d="M7.25 16.5C7.66421 16.5 8 16.1642 8 15.75C8 15.3358 7.66421 15 7.25 15H6.06066L9.28033 11.7803C9.57322 11.4874 9.57322 11.0126 9.28033 10.7197C8.98744 10.4268 8.51256 10.4268 8.21967 10.7197L5 13.9393V12.75C5 12.3358 4.66421 12 4.25 12C3.83579 12 3.5 12.3358 3.5 12.75V15.75C3.5 16.1642 3.83579 16.5 4.25 16.5H7.25Z" fill="#4A4A4A"/>
</svg>

<svg viewBox="0 0 20 20" xmlns="http://www.w3.org/2000/svg"><path d="M12.75 3.5a.75.75 0 0 0 0 1.5h1.19l-3.22 3.22a.75.75 0 0 0 1.06 1.06l3.22-3.22v1.19a.75.75 0 0 0 1.5 0v-3a.75.75 0 0 0-.75-.75h-3Z" fill="#5C5F62"/><path d="M7.25 16.5a.75.75 0 0 0 0-1.5h-1.19l3.22-3.22a.75.75 0 1 0-1.06-1.06l-3.22 3.22v-1.19a.75.75 0 0 0-1.5 0v3c0 .414.336.75.75.75h3Z" fill="#5C5F62"/></svg>
